X:123
T:Spanish Waltz
S:John Moore's Book 2
Z:Transcribed by Edmund Spriggs 05/2021
%%VWML: Moore1-4494-p95-0
F:http://www.vwml.org/record/Moore2/4494/p95
M:3/4
N:The semiquavers in bar 9 should be quavers.
N:The minims in bars 10, 11 and 12 have four dots above them.
N:The meaning of these dots is unclear to the transcriber.
L:1/8
K:C
G2|(Gc).e2.e2|(FA).d2.d2|(DF).B2.B2|a2g^fg2|
(Gc).e2.e2|(FA).d2.d2|(DF).B2.B2|c4:|
|:cB|c/d/e/f/^f/g/|L^g2c'4|Lc'2'd'4|Ld'2e'4|
cdef^fg|^g2c'4|Lc'2'd'4|c'2z2:|

